!!!OTL: Duihua
!!!ARE: Asia, China,ÿHebei, Gaoyi
!! IV, 95
!!!SCT: C1650
!!!YEM: Copyright 1995, estate of Helmut Schaffrath.
**kern
*ICvox
*Ivox
!! Mixed meters:  2/4; 3/4; 4/4
*M4/4
*k[b-e-a-d-]
*A-:
{8cc
8ee-
8ff
16cc
16ee-
16cc
16b-
8a-
4a-
=1
8ee-
16cc
16ee-
8ff
8ee-
8cc
16cc
16b-
4a-}
=2
{8a-
8b-
8.cc
16b-
8an
4.b-
=3
8.f
16a-
8b-
8b-
2a-}
=4
{8g
8f
8a-
16a-
16a-
8a-
16a-
16f
4e-
=5
16a-
16f
8cc
8.b-
16a-
8c
4.e-}
=6
{8b-
8b-
4a-
8cc
4ee-
8ff
=7
*M2/4
16cc
16b-
4.a-}
=8
*M4/4
{8.ff
16ee-
8cc
8ee-
4ff
4ee-
=9
*M3/4
8.cc
16b-
8b-
4a-
8b-
=10
8cc
8b-
8b-
4a-
8r}
=11
*M2/4
{8.a-
16b-
4ee-
=12
*M3/4
8ff
4ee-
16cc
16b-
4a-
=13
*M4/4
8ee-
16cc
16ee-
8cc
8cc
8b-
16a-
16b-
8cc
8b-
=14
4a-
8f
[8e-
2e-]}
==
!!!AGN: Wuge, Shangu
!!!AMT: irregular
!!!AIN: vox
!!!EED: Helmut Schaffrath
!!!EEV: 1.0
*-
